!!!COM: Mendelssohn, Felix
!!!CDT: 1809/02/03-1847/11/04
!!!OPR: Sechs vierstimmige Lieder
!!!OTL: Abschied vom Wald
!!!OPS: Op. 59
!!!ONM: Nr. 3
!!!OMD: Andante non lento
**kern	**text	**text	**text	**dynam	**kern	**text	**text	**text	**dynam	**kern	**text	**text	**text	**dynam	**kern	**text	**text	**text	**dynam
*part4	*part4	*part4	*part4	*part4	*part3	*part3	*part3	*part3	*part3	*part2	*part2	*part2	*part2	*part2	*part1	*part1	*part1	*part1	*part1
*staff4	*staff4	*staff4	*staff4	*	*staff3	*staff3	*staff3	*staff3	*	*staff2	*staff2	*staff2	*staff2	*	*staff1	*staff1	*staff1	*staff1	*
*I"Bass	*	*	*	*	*I"Tenor	*	*	*	*	*I"Alto	*	*	*	*	*I"Soprano	*	*	*	*
*clefF4	*	*	*	*	*clefGv2	*	*	*	*	*clefG2	*	*	*	*	*clefG2	*	*	*	*
*k[b-e-a-]	*	*	*	*	*k[b-e-a-]	*	*	*	*	*k[b-e-a-]	*	*	*	*	*k[b-e-a-]	*	*	*	*
*E-:	*	*	*	*	*E-:	*	*	*	*	*E-:	*	*	*	*	*E-:	*	*	*	*
*M4/4	*	*	*	*	*M4/4	*	*	*	*	*M4/4	*	*	*	*	*M4/4	*	*	*	*
*met(c)	*	*	*	*	*met(c)	*	*	*	*	*met(c)	*	*	*	*	*met(c)	*	*	*	*
=	=	=	=	=	=	=	=	=	=	=	=	=	=	=	=	=	=	=	=
4B-	1.O	2.Im	3.Bald	p	4B-	1.O	2.Im	3.Bald	p	4b-	1.O	2.Im	3.Bald	p	4b-	1.O	2.Im	3.Bald	p
=1	=1	=1	=1	=1	=1	=1	=1	=1	=1	=1	=1	=1	=1	=1	=1	=1	=1	=1	=1
4G	Thä-	Wal-	werd'	.	4G	Thä-	Wal-	werd'	.	4g	Thä-	Wal-	werd'	.	4g	Thä-	Wal-	werd'	.
4E-	-ler	-de	ich	.	4E-	-ler	-de	ich	.	4e-	-ler	-de	ich	.	4e-	-ler	-de	ich	.
4.D	weit,	steht	dich	.	4.D	weit,	steht	dich	.	4.d	weit,	steht	dich	.	4.d	weit,	steht	dich	.
8E-	o	ge-	ver-	.	8E-	o	ge-	ver-	.	8e-	o	ge-	ver-	.	8e-	o	ge-	ver-	.
=2	=2	=2	=2	=2	=2	=2	=2	=2	=2	=2	=2	=2	=2	=2	=2	=2	=2	=2	=2
2BB-	Hö-	-schrie-	-las-	.	2B-	Hö-	-schrie-	-las-	.	2e-	Hö-	-schrie-	-las-	.	2g	Hö-	-schrie-	-las-	.
4BB-	-hen,	-ben	-sen,	.	4A-	-hen,	-ben	-sen,	.	4d	-hen,	-ben	-sen,	.	4f	-hen,	-ben	-sen,	.
4BB-	o	ein	fremd	<	4G	o	ein	fremd	<	4B-	o	ein	fremd	<	4e-	o	ein	fremd	<
=3	=3	=3	=3	=3	=3	=3	=3	=3	=3	=3	=3	=3	=3	=3	=3	=3	=3	=3	=3
4BB-	schö-	stil-	in	(	4c	schö-	stil-	in	(	4e-	schö-	stil-	in	(	4a-	schö-	stil-	in	(
4BB-	-ner	-les	die	[	4B-	-ner	-les	die	[	4e-	-ner	-les	die	[	4g	-ner	-les	die	[
4.A-	grü-	ern-	Frem-	.	4.d	grü-	ern-	Frem-	.	4.f	grü-	ern-	Frem-	.	4.cc	grü-	ern-	Frem-	.
8A-	-ner	-stes	-de	.	8d	-ner	-stes	-de	.	8f	-ner	-stes	-de	.	8cc	-ner	-stes	-de	.
=4	=4	=4	=4	=4	=4	=4	=4	=4	=4	=4	=4	=4	=4	=4	=4	=4	=4	=4	=4
2.G	Wald,	Wort	geh'n,	.	2.e-	Wald,	Wort	geh'n,	.	2.b-	Wald,	Wort	geh'n,	.	2.b-	Wald,	Wort	geh'n,	.
4F	du	vom	auf	f	4d	du	vom	auf	f	4a-	du	vom	auf	f	4b-	du	vom	auf	f
=5	=5	=5	=5	=5	=5	=5	=5	=5	=5	=5	=5	=5	=5	=5	=5	=5	=5	=5	=5
4E-	mei-	rech-	bunt-	.	4e-	mei-	rech-	bunt-	.	4g	mei-	rech-	bunt-	.	4ee-	mei-	rech-	bunt-	.
4G	-ner	-ten	-be-	.	4e-	-ner	-ten	-be-	.	4e-	-ner	-ten	-be-	.	4b-	-ner	-ten	-be-	.
4.c	Lust	Thun	-weg-	.	4.c	Lust	Thun	-weg-	.	4.e-	Lust	Thun	-weg-	.	4.a-	Lust	Thun	-weg-	.
8B-	und	und	-ten	.	8c	und	und	-ten	.	8e-	und	und	-ten	.	8g	und	und	-ten	.
=6	=6	=6	=6	=6	=6	=6	=6	=6	=6	=6	=6	=6	=6	=6	=6	=6	=6	=6	=6
2A-	We-	Lie-	Gas-	.	2c	We-	Lie-	Gas-	.	2e-	We-	Lie-	Gas-	.	2g	We-	Lie-	Gas-	.
4A-	-hen	-ben,	-sen	.	4c	-hen	-ben,	-sen	.	4e-	-hen	-ben,	-sen	.	4f	-hen	-ben,	-sen	.
4A-	an-	und	des	p	4A-	an-	und	des	p	4e-	an-	und	des	p	4cc	an-	und	des	p
=7	=7	=7	=7	=7	=7	=7	=7	=7	=7	=7	=7	=7	=7	=7	=7	=7	=7	=7	=7
4AA-	-dacht'-	was	Le-	.	4F	-dacht'-	was	Le-	.	4e-	-dacht'-	was	Le-	.	4cc	-dacht'-	was	Le-	.
4AA-	-ger	des	-bens	.	4F	-ger	des	-bens	.	4e-	-ger	des	-bens	.	4f	-ger	des	-bens	.
4.BB-	Auf-	Mensch-	Schau-	.	4.F	Auf-	Mensch-	Schau-	.	4.d	Auf-	Mensch-	Schau-	.	4.a-	Auf-	Mensch-	Schau-	.
8BB-	-ent-	-en	-spiel	.	8A-	-ent-	-en	-spiel	.	8B-	-ent-	-en	-spiel	.	8d	-ent-	-en	-spiel	.
=8	=8	=8	=8	=8	=8	=8	=8	=8	=8	=8	=8	=8	=8	=8	=8	=8	=8	=8	=8
2E-	-halt!	Hort.	seh'n.	.	4G	-halt!	Hort.	seh'n.	.	4B-	-halt!	Hort.	seh'n.	.	2e-	-halt!	Hort.	seh'n.	.
.	.	.	.	.	4G	Da	Ich	Und	.	4B-	Da	Ich	Und	.	.	.	.	.	.
2r	.	.	.	.	4c	drau-	ha-	mit-	<	4e-	drau-	ha-	mit-	<	4r	.	.	.	.
.	.	.	.	.	4B-	-ssen,	-be	-ten	.	4d	-ssen,	-be	-ten	.	4g	Da	Ich	Und	.
=9	=9	=9	=9	=9	=9	=9	=9	=9	=9	=9	=9	=9	=9	=9	=9	=9	=9	=9	=9
*B-:	*	*	*	*	*B-:	*	*	*	*	*B-:	*	*	*	*	*B-:	*	*	*	*
4r	.	.	.	.	(2An	stets	treu	in	.	(2c	stets	treu	in	.	4.g	drau-	ha-	mit-	<
4E-	Da	Ich	Und	<	.	.	.	.	.	.	.	.	.	.	.	.	.	.	.
.	.	.	.	.	.	.	.	.	.	.	.	.	.	.	8f	-ssen,	-be	-ten	.
4D	drau-	ha-	mit-	(	4B-)	.	.	.	.	4f)	.	.	.	.	4f	stets	treu	in	.
4D	-ssen,	-be	-ten	(	4B-	be-	ge-	dem	.	4f	be-	ge-	dem	.	4f	be-	ge-	dem	.
=10	=10	=10	=10	=10	=10	=10	=10	=10	=10	=10	=10	=10	=10	=10	=10	=10	=10	=10	=10
*c:	*	*	*	*	*c:	*	*	*	*	*c:	*	*	*	*	*c:	*	*	*	*
4.F	stets	treu	in	(	2Bn	-tro-	-le-	Le-	.	2d	-tro-	-le-	Le-	.	2a-	-tro-	-le-	Le-	.
8F	be-	ge-	dem	(	.	.	.	.	.	.	.	.	.	.	.	.	.	.	.
4E-	-tro-	-le-	Le-	[	2c	-gen,	-sen	-ben	.	2g	-gen,	-sen	-ben	.	2g	-gen,	-sen	-ben	.
4E-	-gen,	-sen	-ben	.	.	.	.	.	.	.	.	.	.	.	.	.	.	.	.
=11	=11	=11	=11	=11	=11	=11	=11	=11	=11	=11	=11	=11	=11	=11	=11	=11	=11	=11	=11
*d:	*	*	*	*	*d:	*	*	*	*	*d:	*	*	*	*	*d:	*	*	*	*
4G	saus't	die	wird	f	4c#X	saus't	die	wird	f	4en	saus't	die	wird	f	4b-	saus't	die	wird	f
8.G	die	Wor-	dei-	.	8.c#	die	Wor-	dei-	.	8.e	die	Wor-	dei-	.	8.b-	die	Wor-	dei-	.
16G	ge-	-te,	-nes	.	16c#	ge-	-te,	-nes	.	16e	ge-	-te,	-nes	.	16b-	ge-	-te,	-nes	.
4G	-schäft-	schlicht	Ernst's	.	4c#	-schäft-	schlicht	Ernst's	.	4e	-schäft-	schlicht	Ernst's	.	4b-	-schäft-	schlicht	Ernst's	.
4G	-ge	und	Ge-	.	4c#	-ge	und	Ge-	.	4e	-ge	und	Ge-	.	4b-	-ge	und	Ge-	.
=12	=12	=12	=12	=12	=12	=12	=12	=12	=12	=12	=12	=12	=12	=12	=12	=12	=12	=12	=12
2F#X	Welt;	wahr,	-walt	>	2d	Welt;	wahr,	-walt	>	2an	Welt;	wahr,	-walt	>	2.an	Welt;	wahr,	-walt	>
*g:	*	*	*	*	*g:	*	*	*	*	*g:	*	*	*	*	*g:	*	*	*	*
2D	schlag'	und	mich	]	2cni	schlag'	und	mich	]	2f#X	schlag'	und	mich	]	.	.	.	.	]
.	.	.	.	.	.	.	.	.	.	.	.	.	.	.	4dd	schlag'	und	mich	pp
=13	=13	=13	=13	=13	=13	=13	=13	=13	=13	=13	=13	=13	=13	=13	=13	=13	=13	=13	=13
*E-:	*	*	*	*	*E-:	*	*	*	*	*E-:	*	*	*	*	*E-:	*	*	*	*
4G	noch	durch	Ein-	pp	4B-	noch	durch	Ein-	pp	4g	noch	durch	Ein-	pp	4ee-	noch	durch	Ein-	.
4GG	ein-	mein	-sa-	.	4B-	ein-	mein	-sa-	.	4e-	ein-	mein	-sa-	.	4b-	ein-	mein	-sa-	.
4GG	-mal	gan-	-men	.	4B-	-mal	gan-	-men	.	4e-	-mal	gan-	-men	.	4a-	-mal	gan-	-men	.
4GG	die	-zes	er-	.	4B-	die	-zes	er-	.	4e-	die	-zes	er-	.	4g	die	-zes	er-	.
=14	=14	=14	=14	=14	=14	=14	=14	=14	=14	=14	=14	=14	=14	=14	=14	=14	=14	=14	=14
1AA-	Bo-	We-	-he-	.	2c	Bo-	We-	-he-	.	2e-	Bo-	We-	-he-	.	2g	Bo-	We-	-he-	.
.	.	.	.	.	4c	-gen	-sen	-ben,	.	4e-	-gen	-sen	-ben,	.	4f	-gen	-sen	-ben,	.
.	.	.	.	.	4F	um	ward's	so	.	4e-	um	ward's	so	.	4cc	um	ward's	so	.
=15	=15	=15	=15	=15	=15	=15	=15	=15	=15	=15	=15	=15	=15	=15	=15	=15	=15	=15	=15
2BB-	-gen,	-sen,	-ben,	.	4.A-	mich,	un-	wird	.	4.e-	mich,	un-	wird	.	4.cc	mich,	un-	wird	.
.	.	.	.	.	8A-	du	-aus-	mein	.	8d	du	-aus-	mein	.	8f	du	-aus-	mein	.
4r	.	.	.	.	4G	grü-	-sprech-	Herz	.	4d	grü-	-sprech-	Herz	.	4g	grü-	-sprech-	Herz	.
4BB-	schlag'	und	mich	.	4F	-nes	-lich	nicht	.	4d	-nes	-lich	nicht	.	4a-	-nes	-lich	nicht	.
=16	=16	=16	=16	=16	=16	=16	=16	=16	=16	=16	=16	=16	=16	=16	=16	=16	=16	=16	=16
4E-	noch	durch	Ein-	<	4E-	Zelt,	klar,	alt,	.	2e-	Zelt,	klar,	alt,	.	2g	Zelt,	klar,	alt,	.
4G	ein-	mein	-sa-	.	4r	.	.	.	.	.	.	.	.	.	.	.	.	.	.
4.B-	-mal	gan-	-men	sf	4r	.	.	.	.	4r	.	.	.	.	4r	.	.	.	.
.	.	.	.	.	4d	schlag'	und	mich	f	4f	schlag'	und	mich	f	4b-	schlag'	und	mich	f
8A-	die	-zes	er-	.	.	.	.	.	.	.	.	.	.	.	.	.	.	.	.
=17	=17	=17	=17	=17	=17	=17	=17	=17	=17	=17	=17	=17	=17	=17	=17	=17	=17	=17	=17
1G	Bo-	We-	-he-	f	4e-	noch	durch	Ein-	.	4g	noch	durch	Ein-	.	4b-	noch	durch	Ein-	.
.	.	.	.	.	4B-	ein-	mein	-sa-	.	4e-	ein-	mein	-sa-	.	4ee-	ein-	mein	-sa-	.
*c:	*	*	*	*	*c:	*	*	*	*	*c:	*	*	*	*	*c:	*	*	*	*
.	.	.	.	.	4.Bn	-mal	gan-	-men	.	4.d	-mal	gan-	-men	.	4.gg	-mal	gan-	-men	.
.	.	.	.	.	8B	die	-zes	er-	.	8d	die	-zes	er-	.	8ff	die	-zes	er-	.
=18	=18	=18	=18	=18	=18	=18	=18	=18	=18	=18	=18	=18	=18	=18	=18	=18	=18	=18	=18
2.G	-gen	-sen	-ben,	.	2Bn	Bo-	We-	-he-	.	(4g	Bo-	We-	-he-	.	(4ee-	Bo-	We-	-he-	.
.	.	.	.	.	.	.	.	.	.	4f)	.	.	.	.	4dd)	.	.	.	.
.	.	.	.	>	4c	-gen	-sen	-ben,	>	4e-	-gen	-sen	-ben,	>	4cc	-gen	-sen	-ben,	>
4GG	um	ward's	so	.	4d	um	ward's	so	.	4f	um	ward's	so	.	4bn	um	ward's	so	.
=19	=19	=19	=19	=19	=19	=19	=19	=19	=19	=19	=19	=19	=19	=19	=19	=19	=19	=19	=19
(4C'	mich,	un-	wird	.	(4c'	mich,	un-	wird	.	[1e-	mich,	un-	wird	.	(4cc'	mich,	un-	wird	.
4r	.	.	.	.	4r	.	.	.	.	.	.	.	.	.	4r	.	.	.	.
*E-:	*	*	*	*	*E-:	*	*	*	*	*E-:	*	*	*	*	*E-:	*	*	*	*
4AA-')	du	-aus-	mein	p	4c')	du	-aus-	mein	p	.	.	.	.	.	4f')	du	-aus-	mein	p
4r	.	.	.	.	4r	.	.	.	.	.	.	.	.	.	4r	.	.	.	.
=20	=20	=20	=20	=20	=20	=20	=20	=20	=20	=20	=20	=20	=20	=20	=20	=20	=20	=20	=20
!	!	!	!	!	!	!	!	!	!	!	!	!	!	!	!	!	!	!	!
2.BB-	grü-	-sprech-	Herz	.	2.F	grü-	-sprech-	Herz	.	4e-]	.	-­	.	.	2.a-	grü-	-sprech-	Herz	.
.	.	.	.	.	.	.	.	.	.	4d	du	aus-	mein	p	.	.	.	.	.
.	.	.	.	.	.	.	.	.	.	4c	grü-	-spech-	Herz	.	.	.	.	.	.
4BB-	-nes	-lich	nicht	.	4A-	-nes	-lich	nicht	.	4B-	-nes	-lich	nicht	.	4d	-nes	-lich	nicht	.
=21	=21	=21	=21	=21	=21	=21	=21	=21	=21	=21	=21	=21	=21	=21	=21	=21	=21	=21	=21
2.EE-;	Zelt!	klar.	alt.	.	2.G;	Zelt!	klar.	alt.	.	2.B-;	Zelt!	klar.	alt.	p	2.e-;	Zelt!	klar.	alt.	.
4r	.	.	.	.	4r	.	.	.	.	4r	.	.	.	.	4r	.	.	.	.
==	==	==	==	==	==	==	==	==	==	==	==	==	==	==	==	==	==	==	==
*-	*-	*-	*-	*-	*-	*-	*-	*-	*-	*-	*-	*-	*-	*-	*-	*-	*-	*-	*-
!!!system-decoration: ([s1,s2,s3,s4])
!!!RDF**kern: i = editorial accidental
!!!AGN: Choral
!!!YOR: https://mdz-nbn-resolving.de/details:bsb11379755
!!!YOO: München, Bayerische Staatsbibliothek
!!!URL-scan: https://www.digitale-sammlungen.de/de/view/bsb11379755?page=9
!!!EED: Wolfgang Drescher
!!!END: 2024/10/17
!!!ENC: Wolfgang Drescher
!!!END: 2024/10/17
!!!title: @{OPS} @{ONM}. @{OTL}